d1 $ density 2 $sound "bd*4"

d2 $ slow 2 $ rev(sound "[numbers numbers]") #shape "0.5" #sustain "0.2"

d3
$s "notes(3,8,2)"
#gain "1.0"
#shape "0.5"
#sustain "0.05

d4 $s "sd(3,8,2) odx(2, 8, 4)" #n (irand 8)

d7 $ density 1 $sound "notes(3,8,{5,7})" #n (irand 8)

d8 $ density 2 $sound "future(2,8,{2,9})" #sustain 0.1 #n (irand 8)



hush
